src/icons/svg/user_write.svg

<?xml version="1.0" encoding="UTF-8"?>
<svg width="17px" height="16px" viewBox="0 0 17 16" version="1.1" xmlns="http://www.w3.org/2000/svg" xmlns:xlink="http://www.w3.org/1999/xlink">
    <!-- Generator: Sketch 54.1 (76490) - https://sketchapp.com -->
    <title>编组</title>
    <desc>Created with Sketch.</desc>
    <defs>
        <polygon id="path-1" points="0 0 17 0 17 16 0 16"></polygon>
    </defs>
    <g id="页面1" stroke="none" stroke-width="1" fill="none" fill-rule="evenodd">
        <g id="M端首页-未登录3复制" transform="translate(-302.000000, -86.000000)">
            <g id="我的" transform="translate(302.000000, 86.000000)">
                <mask id="mask-2" fill="white">
                    <use xlink:href="#path-1"></use>
                </mask>
                <g></g>
                <path d="M12.6380268,5.48993036 C12.6380268,3.1843495 10.7845149,1.31370295 8.50005262,1.31370295 C6.21559034,1.31370295 4.36209951,3.1843495 4.36209951,5.48993036 C4.36209951,7.79551121 6.21559034,9.66613652 8.50005262,9.66613652 C10.7845149,9.66613652 12.6380268,7.79551121 12.6380268,5.48993036 L12.6380268,5.48993036 Z M17,15.3387835 C17,15.7041954 16.7069049,16 16.3448611,16 C15.9827752,16 15.6897012,15.7041954 15.6897012,15.3387835 L15.6897012,14.9820804 C15.6897012,13.328986 12.3534555,10.9885696 8.52585576,10.9885696 C5.4827263,10.9885696 1.31034094,12.9548652 1.31034094,14.9124518 L1.31034094,15.3387835 C1.31034094,15.7041954 1.01722479,16 0.655159948,16 C0.293116149,16 0,15.7041954 0,15.3387835 L0,14.5122044 C0,13.5204114 1.45693059,10.9798607 5.43101478,10.0402573 C4.00003467,9.04840067 3.05175857,7.38661859 3.05175857,5.49863924 C3.05175857,2.46223452 5.49137646,0 8.50005262,0 C11.5086446,0 13.9483256,2.46223452 13.9483256,5.49863924 C13.9483256,7.35184679 13.0345239,8.98750222 11.637955,9.98806777 C15.6551426,10.8928993 17,13.5638921 17,14.5122044 L17,15.3387835 Z" id="Fill-1" fill="#FFFFFF" mask="url(#mask-2)"></path>
            </g>
        </g>
    </g>
</svg>

<svg width="17" height="16" xmlns="http://www.w3.org/2000/svg" xmlns:xlink="http://www.w3.org/1999/xlink"><defs><path id="a" d="M0 0h17v16H0z"/></defs><g fill="none" fill-rule="evenodd"><mask id="b" fill="#fff"><use xlink:href="#a"/></mask><path d="M12.638 5.49c0-2.306-1.853-4.176-4.138-4.176-2.284 0-4.138 1.87-4.138 4.176S6.216 9.666 8.5 9.666c2.285 0 4.138-1.87 4.138-4.176zM17 15.339a.658.658 0 01-.655.661.658.658 0 01-.655-.661v-.357c0-1.653-3.337-3.993-7.164-3.993-3.043 0-7.216 1.966-7.216 3.923v.427A.658.658 0 01.655 16 .658.658 0 010 15.339v-.827c0-.992 1.457-3.532 5.431-4.472a5.52 5.52 0 01-2.38-4.54C3.052 2.462 5.492 0 8.502 0c3.008 0 5.447 2.462 5.447 5.499a5.512 5.512 0 01-2.31 4.49c4.017.904 5.362 3.575 5.362 4.523v.827z" fill="#FFF" mask="url(#b)"/></g></svg>
